X:959
T:Paddy Fahy's
T:Paddy Fahey's
R:reel
C:Paddy Fahy
Z:id:hn-reel-959
M:C|
L:1/8
K:Gdor
B2dB DFBd | c3A FAcA | B2dB DFBd | c=BcA _BGGA |
BDGA BDGB | ADFA c2=Bc | dg~g2 dc=Bd |1 c=BcF DGGA :|2 c=BcF DGGd ||
K:Gmix
|: g^fgd Bdge | =f2cf ABcd | g^fgd ABcA | dg^fa ~g3a |
bga^f g^fdc | (3Bcd BG DEFA | dg~g2 dcBd |1 cBcF DGGd :|2 cBcF DGGA ||

